X:181
T:SABOTTEE
Z: Yves BELOTTEAU
M:6/8
L:1/4
Q:1/4=75
K:G
|:GG/2GG/2|GG/2DD/2|GG/2GG/2|GG/2 D3/2:|
D/2G/2B/2 dd/2| BG/2 c3/2|B3/2 AG/2|FG/2 A3/2|D/2G/2B/2 dd/2| BG/2 c3/2|
B3/2 AG/2|FA/2 G3/2|
